src/assets/outline/NoteRemove.svg

<svg width="24" height="24" viewBox="0 0 24 24"  xmlns="http://www.w3.org/2000/svg">
<path d="M12 14.75H7C6.59 14.75 6.25 14.41 6.25 14C6.25 13.59 6.59 13.25 7 13.25H12C12.41 13.25 12.75 13.59 12.75 14C12.75 14.41 12.41 14.75 12 14.75Z" />
<path d="M6.99994 6.71039C6.80994 6.71039 6.61994 6.64039 6.46994 6.49039L2.71994 2.74039C2.42994 2.45039 2.42994 1.97039 2.71994 1.68039C3.00994 1.39039 3.48994 1.39039 3.77994 1.68039L7.52994 5.43039C7.81994 5.72039 7.81994 6.20039 7.52994 6.49039C7.37994 6.63039 7.18994 6.71039 6.99994 6.71039Z" />
<path d="M3.2099 6.75043C3.0199 6.75043 2.8299 6.68043 2.6799 6.53043C2.3899 6.24043 2.3899 5.76043 2.6799 5.47043L6.4299 1.72043C6.7199 1.43043 7.1999 1.43043 7.4899 1.72043C7.7799 2.01043 7.7799 2.49043 7.4899 2.78043L3.7399 6.53043C3.5999 6.68043 3.3999 6.75043 3.2099 6.75043Z" />
<path d="M15 10.75H7C6.59 10.75 6.25 10.41 6.25 10C6.25 9.59 6.59 9.25 7 9.25H15C15.41 9.25 15.75 9.59 15.75 10C15.75 10.41 15.41 10.75 15 10.75Z" />
<path d="M21 16.75C20.59 16.75 20.25 16.41 20.25 16V7.99C20.25 3.76 18.81 2.9 15.96 2.75H10C9.59 2.75 9.25 2.41 9.25 2C9.25 1.59 9.59 1.25 10 1.25H16C20.1 1.47 21.75 3.42 21.75 7.99V16C21.75 16.41 21.41 16.75 21 16.75Z" />
<path d="M15 22.7498H9C3.38 22.7498 2.25 20.1598 2.25 15.9798V9.00977C2.25 8.59977 2.59 8.25977 3 8.25977C3.41 8.25977 3.75 8.59977 3.75 9.00977V15.9798C3.75 19.6998 4.48 21.2498 9 21.2498H15C15.41 21.2498 15.75 21.5898 15.75 21.9998C15.75 22.4098 15.41 22.7498 15 22.7498Z" />
<path d="M15 22.75C14.9 22.75 14.81 22.73 14.71 22.69C14.43 22.57 14.25 22.3 14.25 22V19C14.25 16.58 15.58 15.25 18 15.25H21C21.3 15.25 21.58 15.43 21.69 15.71C21.8 15.99 21.74 16.31 21.53 16.53L15.53 22.53C15.39 22.67 15.19 22.75 15 22.75ZM18 16.75C16.42 16.75 15.75 17.42 15.75 19V20.19L19.19 16.75H18Z" />
</svg>

<?xml version="1.0" encoding="UTF-8"?>
<svg width="24" height="24" viewBox="0 0 24 24" xmlns="http://www.w3.org/2000/svg">
 <path d="m12 14.75h-5c-0.41 0-0.75-0.34-0.75-0.75s0.34-0.75 0.75-0.75h5c0.41 0 0.75 0.34 0.75 0.75s-0.34 0.75-0.75 0.75z"/>
 <path d="m6.9999 6.7104c-0.19 0-0.38-0.07-0.53-0.22l-3.75-3.75c-0.29-0.29-0.29-0.77 0-1.06s0.77-0.29 1.06 0l3.75 3.75c0.29 0.29 0.29 0.77 0 1.06-0.15 0.14-0.34 0.22-0.53 0.22z"/>
 <path d="m3.2099 6.7504c-0.19 0-0.38-0.07-0.53-0.22-0.29-0.29-0.29-0.77 0-1.06l3.75-3.75c0.29-0.29 0.77-0.29 1.06 0s0.29 0.77 0 1.06l-3.75 3.75c-0.14 0.15-0.34 0.22-0.53 0.22z"/>
 <path d="m15 10.75h-8c-0.41 0-0.75-0.34-0.75-0.75s0.34-0.75 0.75-0.75h8c0.41 0 0.75 0.34 0.75 0.75s-0.34 0.75-0.75 0.75z"/>
 <path d="m21 16.75c-0.41 0-0.75-0.34-0.75-0.75v-8.01c0-4.23-1.44-5.09-4.29-5.24h-5.96c-0.41 0-0.75-0.34-0.75-0.75s0.34-0.75 0.75-0.75h6c4.1 0.22 5.75 2.17 5.75 6.74v8.01c0 0.41-0.34 0.75-0.75 0.75z"/>
 <path d="m15 22.75h-6c-5.62 0-6.75-2.59-6.75-6.77v-6.97c0-0.41 0.34-0.75 0.75-0.75s0.75 0.34 0.75 0.75v6.97c0 3.72 0.73 5.27 5.25 5.27h6c0.41 0 0.75 0.34 0.75 0.75s-0.34 0.75-0.75 0.75z"/>
 <path d="m15 22.75c-0.1 0-0.19-0.02-0.29-0.06-0.28-0.12-0.46-0.39-0.46-0.69v-3c0-2.42 1.33-3.75 3.75-3.75h3c0.3 0 0.58 0.18 0.69 0.46s0.05 0.6-0.16 0.82l-6 6c-0.14 0.14-0.34 0.22-0.53 0.22zm3-6c-1.58 0-2.25 0.67-2.25 2.25v1.19l3.44-3.44h-1.19z"/>
</svg>
